packages/icons/src/components/Logo/assets/dark/grafana.svg

<svg width="20" height="20" viewBox="0 0 20 20" fill="none" xmlns="http://www.w3.org/2000/svg">
<path d="M19.1719 8.83008C19.1406 8.49414 19.082 8.10742 18.9727 7.67773C18.8633 7.25195 18.6953 6.78711 18.4531 6.29883C18.2109 5.81445 17.8984 5.31445 17.4883 4.82227C17.3281 4.63086 17.1523 4.44336 16.9648 4.25977C17.2461 3.14258 16.625 2.16992 16.625 2.16992C15.5508 2.10352 14.8672 2.50586 14.6133 2.68945C14.5703 2.67383 14.5312 2.65039 14.4883 2.63477C14.3047 2.56445 14.1172 2.49023 13.9219 2.43164C13.7305 2.36914 13.5312 2.31445 13.3281 2.26758C13.125 2.2168 12.9219 2.17773 12.7109 2.14648C12.6719 2.14258 12.6406 2.13477 12.6016 2.13086C12.1328 0.630859 10.7852 0.00195312 10.7852 0.00195312C9.28125 0.955078 9 2.28711 9 2.28711C9 2.28711 8.99609 2.31445 8.98438 2.36523C8.90234 2.38867 8.82031 2.41602 8.73828 2.43555C8.62109 2.4668 8.50781 2.51367 8.39844 2.55664C8.28125 2.59961 8.17188 2.64648 8.05859 2.69336C7.83203 2.79102 7.60547 2.9043 7.38672 3.02539C7.17188 3.14648 6.96094 3.2793 6.75781 3.41602L6.70312 3.39258C4.61719 2.60352 2.76953 3.55664 2.76953 3.55664C2.59766 5.77148 3.60156 7.16602 3.80078 7.41992C3.75 7.55664 3.70703 7.69727 3.66406 7.83398C3.51172 8.33398 3.39453 8.84961 3.32422 9.38086C3.3125 9.45898 3.30078 9.5332 3.29688 9.61133C1.36719 10.5645 0.800781 12.5098 0.800781 12.5098C2.40234 14.3574 4.27734 14.4707 4.27734 14.4707L4.28125 14.4668C4.51953 14.8926 4.79297 15.2949 5.10156 15.6738C5.23438 15.834 5.36719 15.9824 5.50781 16.1309C4.92188 17.8066 5.58984 19.1934 5.58984 19.1934C7.375 19.2598 8.54688 18.4121 8.79688 18.2168C8.97266 18.2793 9.15625 18.334 9.33594 18.377C9.88672 18.5215 10.4492 18.6035 11.0117 18.623C11.1484 18.627 11.293 18.6348 11.4297 18.627H11.6289L11.7188 18.623V18.627C12.5625 19.8262 14.0391 19.998 14.0391 19.998C15.0898 18.8887 15.1523 17.7871 15.1523 17.5527V17.4551C15.3711 17.3027 15.582 17.1348 15.7812 16.9551C16.1992 16.5762 16.5703 16.1387 16.8789 15.6699C16.9062 15.627 16.9336 15.5801 16.9609 15.5371C18.1523 15.6035 18.9922 14.7988 18.9922 14.7988C18.793 13.5605 18.0898 12.9512 17.9414 12.8379C17.9414 12.8379 17.9375 12.834 17.9258 12.8262C17.9141 12.8223 17.9141 12.8145 17.9141 12.8145C17.9102 12.8105 17.8984 12.8027 17.8867 12.7988C17.8906 12.7207 17.8984 12.6504 17.9023 12.5723C17.9141 12.4395 17.9141 12.3027 17.9141 12.1699V11.9629L17.9102 11.8809L17.9062 11.7715C17.9062 11.7324 17.9023 11.7012 17.8945 11.666C17.8867 11.6309 17.8906 11.5957 17.8828 11.5605L17.8711 11.4551L17.8555 11.3496C17.832 11.2129 17.8125 11.0801 17.7773 10.9434C17.6523 10.4082 17.4414 9.90039 17.1719 9.44336C16.8945 8.98633 16.5547 8.58398 16.1641 8.24414C15.7773 7.9043 15.3438 7.62695 14.8906 7.42383C14.4336 7.2207 13.9609 7.08789 13.4844 7.02539C13.2461 6.99414 13.0117 6.98242 12.7734 6.98633H12.5938L12.5039 6.99023C12.4727 6.99023 12.4375 6.99414 12.4102 6.99414C12.2891 7.00586 12.168 7.02148 12.0508 7.04492C11.5781 7.13477 11.1289 7.30273 10.7383 7.54102C10.3477 7.7793 10.0039 8.06836 9.73047 8.40039C9.45312 8.73242 9.23828 9.09961 9.08984 9.47852C8.94141 9.85742 8.85938 10.2559 8.83594 10.6348C8.83203 10.7285 8.83203 10.8262 8.83203 10.9199V10.9902L8.83594 11.0684C8.83984 11.1113 8.83984 11.1621 8.84766 11.2051C8.86328 11.3965 8.90234 11.584 8.95312 11.7598C9.05859 12.1191 9.22266 12.4434 9.42578 12.7168C9.62891 12.9941 9.87891 13.2168 10.1367 13.4004C10.3945 13.5762 10.6758 13.7051 10.9531 13.7871C11.2305 13.8691 11.5039 13.9043 11.7617 13.9043H11.9062C11.9258 13.9043 11.9375 13.9043 11.957 13.9004C11.9844 13.9004 12.0117 13.8965 12.0391 13.8965C12.043 13.8965 12.0547 13.8965 12.0625 13.8926L12.0898 13.8887C12.1055 13.8887 12.1211 13.8848 12.1406 13.8848C12.1719 13.8809 12.2031 13.873 12.2344 13.8691C12.2656 13.8652 12.2969 13.8574 12.3242 13.8457C12.3867 13.834 12.4414 13.8145 12.4961 13.7949C12.6055 13.7559 12.7148 13.7129 12.8086 13.6621C12.9062 13.6113 12.9961 13.5527 13.0859 13.498C13.1094 13.4824 13.1367 13.4668 13.1562 13.4434C13.2461 13.373 13.2617 13.2402 13.1875 13.1504C13.125 13.0723 13.0156 13.0527 12.9297 13.0996C12.9062 13.1113 12.8867 13.123 12.8633 13.1309C12.7852 13.1699 12.7109 13.2012 12.625 13.2285C12.543 13.2559 12.4531 13.2793 12.3672 13.2949C12.3242 13.2988 12.2773 13.3066 12.2305 13.3105C12.207 13.3105 12.1875 13.3145 12.1602 13.3145H12.0273C12 13.3145 11.9727 13.3145 11.9453 13.3105H11.9141C11.9023 13.3105 11.8867 13.3105 11.875 13.3066C11.8477 13.3027 11.8242 13.3027 11.7969 13.2949C11.5938 13.2676 11.3906 13.2051 11.1953 13.1191C10.9961 13.0293 10.8086 12.9082 10.6406 12.7559C10.4727 12.6035 10.3203 12.4199 10.207 12.209C10.0898 11.998 10.0078 11.7676 9.96875 11.5254C9.95312 11.4043 9.94141 11.2793 9.94531 11.1543C9.94531 11.123 9.94922 11.0879 9.94922 11.0566V11.0137C9.94922 10.998 9.95312 10.9824 9.95312 10.9629C9.95703 10.8965 9.96875 10.8301 9.98047 10.7637C10.0742 10.2363 10.3398 9.7168 10.7461 9.32617C10.8516 9.22852 10.9609 9.13867 11.0781 9.05664C11.1953 8.97461 11.3203 8.9043 11.4531 8.8418C11.5859 8.7793 11.7188 8.73242 11.8594 8.69336C11.9961 8.6543 12.1406 8.63086 12.2891 8.61523C12.3594 8.61133 12.4336 8.60352 12.5078 8.60352H12.6797L12.7422 8.60742C12.9023 8.61914 13.0547 8.63867 13.2109 8.67773C13.5195 8.74414 13.8242 8.86133 14.1016 9.01367C14.6641 9.32617 15.1445 9.81445 15.4336 10.3965C15.582 10.6895 15.6875 11.002 15.7383 11.3262C15.75 11.4082 15.7617 11.4902 15.7656 11.5723L15.7695 11.6348L15.7734 11.6973V11.9395C15.7734 11.9785 15.7695 12.0449 15.7695 12.084C15.7656 12.1738 15.7539 12.2676 15.7422 12.3535C15.7305 12.4434 15.7148 12.5293 15.6992 12.6191C15.6836 12.709 15.6602 12.7949 15.6367 12.877C15.5937 13.0488 15.5391 13.2168 15.4727 13.3887C15.3398 13.7207 15.1641 14.0371 14.9531 14.3301C14.5273 14.916 13.9492 15.3887 13.2891 15.6895C12.957 15.8379 12.6133 15.9473 12.2539 16.002C12.0781 16.0332 11.8945 16.0527 11.7148 16.0566H11.4414C11.3438 16.0566 11.25 16.0527 11.1484 16.041C10.7617 16.0137 10.3828 15.9434 10.0078 15.8379C9.63672 15.7324 9.28125 15.584 8.9375 15.4082C8.26172 15.0449 7.64844 14.5488 7.17578 13.9473C6.9375 13.6504 6.73047 13.3262 6.55859 12.9902C6.38672 12.6543 6.25 12.2949 6.15234 11.9395C6.05469 11.5762 5.99219 11.2051 5.96484 10.8301L5.96094 10.7598V10.2832C5.96484 10.0996 5.98438 9.9082 6.00391 9.7207C6.02734 9.5332 6.05859 9.3418 6.09766 9.1543C6.13672 8.9668 6.17969 8.7793 6.23438 8.5918C6.33984 8.2207 6.47266 7.86523 6.625 7.5293C6.9375 6.85742 7.34766 6.25586 7.83594 5.77539C7.95703 5.6543 8.08203 5.54492 8.21484 5.43555C8.34766 5.33008 8.48437 5.23242 8.62891 5.13867C8.76562 5.04492 8.91406 4.96289 9.0625 4.88477C9.13281 4.8457 9.21094 4.80664 9.28906 4.77539C9.32812 4.75977 9.36719 4.74414 9.40625 4.72461C9.44531 4.70898 9.48438 4.69336 9.52344 4.67383C9.67578 4.60742 9.83594 4.55273 10.0039 4.50195C10.043 4.49023 10.0859 4.47852 10.125 4.46289C10.1641 4.45117 10.207 4.43945 10.2461 4.43164C10.3281 4.4082 10.4102 4.38867 10.4922 4.36914C10.5312 4.35742 10.5742 4.35352 10.6172 4.3418C10.6602 4.33008 10.6992 4.32617 10.7422 4.31445C10.7852 4.31055 10.8242 4.29883 10.8672 4.29102L10.9297 4.2793L10.9961 4.26758C11.0391 4.26367 11.0781 4.25586 11.1211 4.25195C11.1719 4.24805 11.2148 4.24023 11.2656 4.23633C11.3047 4.23242 11.3711 4.22461 11.4102 4.2207C11.4375 4.2168 11.4727 4.2168 11.5 4.20898L11.5625 4.20508L11.5898 4.20117H11.6211C11.6719 4.19727 11.7148 4.19727 11.7656 4.18945L11.8359 4.18555H11.8867C11.9258 4.18555 11.9688 4.18164 12.0078 4.18164C12.168 4.17773 12.332 4.17773 12.4922 4.18164C12.8125 4.19336 13.125 4.23242 13.4297 4.28711C14.043 4.4043 14.6133 4.5957 15.1367 4.85352C15.6602 5.10742 16.1211 5.41992 16.5312 5.76367C16.5586 5.78711 16.582 5.80664 16.6094 5.83008C16.6328 5.85352 16.6602 5.87305 16.6797 5.89648C16.7305 5.93945 16.7734 5.98633 16.8242 6.0293C16.875 6.07227 16.918 6.11914 16.9609 6.16211C17.0039 6.20508 17.0508 6.25195 17.0938 6.29883C17.2656 6.48242 17.4258 6.66211 17.5664 6.84961C17.8516 7.2207 18.0859 7.5918 18.2656 7.94727C18.2773 7.9707 18.2891 7.99023 18.2969 8.01367C18.3086 8.03711 18.3203 8.05664 18.3281 8.08008C18.3516 8.12305 18.3711 8.16992 18.3906 8.21289C18.4141 8.25586 18.4297 8.29492 18.4531 8.33789C18.4688 8.38086 18.4922 8.41992 18.5078 8.46289C18.5742 8.62695 18.6406 8.78711 18.6914 8.93555C18.7734 9.17773 18.8359 9.39258 18.8828 9.58008C18.8984 9.6582 18.9727 9.70508 19.0469 9.69727C19.1289 9.69336 19.1914 9.62695 19.1914 9.54492C19.207 9.33398 19.1992 9.09961 19.1719 8.83008Z" fill="url(#paint0_linear_378_462)"/>
<defs>
<linearGradient id="paint0_linear_378_462" x1="10.0001" y1="5.97992" x2="10.0001" y2="19.8559" gradientUnits="userSpaceOnUse">
<stop stop-color="#F05A28"/>
<stop offset="1" stop-color="#FBCA0A"/>
</linearGradient>
</defs>
</svg>

<svg xmlns="http://www.w3.org/2000/svg" width="20" height="20" fill="none" viewBox="0 0 20 20">
    <path fill="url(#a)" d="M19.172 8.83a7.5 7.5 0 0 0-.2-1.152 7 7 0 0 0-.519-1.38 7.6 7.6 0 0 0-.965-1.476 8 8 0 0 0-.523-.562c.281-1.117-.34-2.09-.34-2.09-1.074-.066-1.758.336-2.012.52-.043-.016-.082-.04-.125-.055-.183-.07-.37-.145-.566-.203a7 7 0 0 0-.594-.164 6 6 0 0 0-.617-.122c-.04-.003-.07-.011-.11-.015C12.134.63 10.786.002 10.786.002 9.281.955 9 2.287 9 2.287l-.016.078c-.082.024-.164.051-.246.07-.117.032-.23.079-.34.122-.117.043-.226.09-.34.136a7.7 7.7 0 0 0-1.3.723l-.055-.023c-2.086-.79-3.933.164-3.933.164-.172 2.214.832 3.609 1.03 3.863q-.073.207-.136.414c-.152.5-.27 1.016-.34 1.547-.011.078-.023.152-.027.23C1.367 10.565.8 12.51.8 12.51c1.601 1.847 3.476 1.96 3.476 1.96l.004-.003q.358.639.82 1.207c.133.16.266.308.407.457-.586 1.676.082 3.062.082 3.062 1.785.067 2.957-.78 3.207-.976.176.062.36.117.539.16a7.7 7.7 0 0 0 1.676.246c.136.004.281.012.418.004h.199l.09-.004v.004c.844 1.2 2.32 1.371 2.32 1.371 1.05-1.11 1.113-2.21 1.113-2.445v-.098q.33-.229.63-.5a6.8 6.8 0 0 0 1.097-1.285l.082-.133c1.191.066 2.031-.738 2.031-.738-.199-1.239-.902-1.848-1.05-1.961l-.016-.012c-.012-.004-.012-.011-.012-.011a.1.1 0 0 0-.027-.016c.004-.078.011-.149.015-.227.012-.132.012-.27.012-.402v-.207l-.004-.082-.004-.11a.5.5 0 0 0-.011-.105c-.008-.035-.004-.07-.012-.106l-.012-.105-.015-.105c-.024-.137-.044-.27-.079-.407a5.4 5.4 0 0 0-.605-1.5 5 5 0 0 0-1.008-1.199 5.1 5.1 0 0 0-1.273-.82 5 5 0 0 0-1.407-.399 5 5 0 0 0-.71-.039h-.18l-.09.004c-.031 0-.066.004-.094.004a3.94 3.94 0 0 0-1.672.547c-.39.238-.734.527-1.008.86a3.85 3.85 0 0 0-.895 2.234q-.004.143-.003.285v.07l.004.078c.004.043.004.094.012.137a3.05 3.05 0 0 0 .578 1.512c.203.277.453.5.71.683.259.176.54.305.817.387s.55.117.809.117h.144c.02 0 .031 0 .051-.004l.082-.004c.004 0 .016 0 .024-.003l.027-.004c.015 0 .031-.004.05-.004.032-.004.063-.012.094-.016a.3.3 0 0 0 .09-.023 2.3 2.3 0 0 0 .484-.184c.098-.05.188-.11.278-.164.023-.016.05-.031.07-.055a.206.206 0 0 0-.226-.343c-.024.011-.043.023-.067.03a2 2 0 0 1-.496.164q-.066.01-.137.016c-.023 0-.043.005-.07.005h-.133q-.04.001-.082-.005h-.03q-.02 0-.04-.003c-.027-.004-.05-.004-.078-.012a2.3 2.3 0 0 1-.602-.176 2.13 2.13 0 0 1-1.25-1.965c0-.031.004-.066.004-.097v-.043l.004-.051c.004-.066.016-.133.027-.2.094-.527.36-1.046.766-1.437a3 3 0 0 1 .332-.27 2.5 2.5 0 0 1 1.211-.44c.07-.005.145-.012.219-.012h.172l.062.003a3.3 3.3 0 0 1 1.36.406 3.27 3.27 0 0 1 1.636 2.313q.02.123.028.246l.004.063.003.062v.243l-.003.144c-.004.09-.016.184-.028.27-.012.09-.027.175-.043.265s-.039.176-.062.258c-.043.172-.098.34-.164.512a4.24 4.24 0 0 1-2.184 2.3 4 4 0 0 1-1.035.313c-.176.031-.36.05-.54.055h-.273c-.097 0-.191-.004-.293-.016a5.7 5.7 0 0 1-1.14-.203 6 6 0 0 1-1.07-.43 5.64 5.64 0 0 1-2.38-2.418 5.6 5.6 0 0 1-.593-2.16l-.004-.07v-.477a7 7 0 0 1 .043-.562 7.4 7.4 0 0 1 .23-1.129c.106-.371.239-.727.391-1.063a6 6 0 0 1 1.21-1.754 5 5 0 0 1 .38-.34 5.3 5.3 0 0 1 .848-.55q.107-.061.226-.11.06-.021.117-.05.06-.023.117-.051c.153-.067.313-.121.48-.172q.062-.016.122-.04c.04-.01.082-.023.121-.03q.123-.034.246-.063c.04-.012.082-.015.125-.027s.082-.016.125-.028c.043-.003.082-.015.125-.023l.063-.012.066-.011.125-.016c.05-.004.094-.012.145-.016l.144-.015c.027-.004.063-.004.09-.012l.063-.004.027-.004h.031c.05-.004.094-.004.145-.012l.07-.003h.05l.122-.004q.242-.006.484 0c.32.011.633.05.938.105a6.76 6.76 0 0 1 3.101 1.477l.078.066c.024.024.051.043.07.066.052.043.094.09.145.133q.075.067.137.133a7 7 0 0 1 .606.688c.285.37.519.742.699 1.097.011.024.023.043.03.067q.02.033.032.066c.024.043.043.09.063.133.023.043.039.082.062.125.016.043.04.082.055.125.066.164.133.324.183.473q.122.363.192.644a.15.15 0 0 0 .164.117.15.15 0 0 0 .144-.152 4 4 0 0 0-.02-.715"/>
    <defs>
        <linearGradient id="a" x1="10" x2="10" y1="5.98" y2="19.856" gradientUnits="userSpaceOnUse">
            <stop stop-color="#f05a28"/>
            <stop offset="1" stop-color="#fbca0a"/>
        </linearGradient>
    </defs>
</svg>
